svgs/sharp-light/meter.svg

<svg xmlns="http://www.w3.org/2000/svg" viewBox="0 0 512 512"><!--! Font Awesome Pro 6.6.0 by @fontawesome - https://fontawesome.com License - https://fontawesome.com/license (Commercial License) Copyright 2024 Fonticons, Inc. --><path d="M480 256A224 224 0 1 0 32 256a224 224 0 1 0 448 0zM0 256a256 256 0 1 1 512 0A256 256 0 1 1 0 256zM176 144l0 64 0 16-32 0 0-16 0-64 0-16 32 0 0 16zm96 0l0 64 0 16-32 0 0-16 0-64 0-16 32 0 0 16zm96 0l0 64 0 16-32 0 0-16 0-64 0-16 32 0 0 16z"/></svg>

<svg xmlns="http://www.w3.org/2000/svg" viewBox="0 0 512 512"><!--! Font Awesome Pro 6.4.2 by @fontawesome - https://fontawesome.com License - https://fontawesome.com/license (Commercial License) Copyright 2023 Fonticons, Inc. --><path d="M480 256A224 224 0 1 0 32 256a224 224 0 1 0 448 0zM0 256a256 256 0 1 1 512 0A256 256 0 1 1 0 256zM176 144v64 16H144V208 144 128h32v16zm96 0v64 16H240V208 144 128h32v16zm96 0v64 16H336V208 144 128h32v16z"/></svg>
